packages/icons/src/components/Logo/assets/light/kafka.svg

<svg width="20" height="20" viewBox="0 0 20 20" fill="none" xmlns="http://www.w3.org/2000/svg">
<path d="M13.711 11.0775C12.9321 11.0775 12.2339 11.4226 11.7557 11.9658L10.5305 11.0984C10.6606 10.7403 10.7353 10.3558 10.7353 9.95337C10.7353 9.55789 10.6632 9.17983 10.5374 8.82703L11.7599 7.96885C12.238 8.50936 12.9344 8.85253 13.711 8.85253C15.1485 8.85253 16.3182 7.68303 16.3182 6.24531C16.3182 4.8076 15.1485 3.6381 13.711 3.6381C12.2734 3.6381 11.1037 4.8076 11.1037 6.24531C11.1037 6.50265 11.1426 6.75079 11.2124 6.9858L9.98909 7.84442C9.47808 7.21046 8.7423 6.76783 7.904 6.63271V5.15838C9.085 4.91033 9.97484 3.86103 9.97484 2.60722C9.97484 1.1695 8.80515 0 7.36763 0C5.9301 0 4.76041 1.1695 4.76041 2.60722C4.76041 3.84423 5.6272 4.8806 6.78458 5.14635V6.63983C5.20506 6.91709 4 8.29557 4 9.95337C4 11.6193 5.217 13.0028 6.80792 13.2706V14.8476C5.6387 15.1046 4.76041 16.1473 4.76041 17.3928C4.76041 18.8305 5.9301 20 7.36763 20C8.80515 20 9.97484 18.8305 9.97484 17.3928C9.97484 16.1473 9.09655 15.1046 7.92733 14.8476V13.2706C8.73258 13.1349 9.46108 12.7112 9.97715 12.0784L11.2106 12.9514C11.1421 13.1843 11.1037 13.43 11.1037 13.6847C11.1037 15.1224 12.2734 16.2919 13.711 16.2919C15.1485 16.2919 16.3182 15.1224 16.3182 13.6847C16.3182 12.247 15.1485 11.0775 13.711 11.0775V11.0775ZM13.711 4.98121C14.408 4.98121 14.975 5.54842 14.975 6.24531C14.975 6.94221 14.408 7.50937 13.711 7.50937C13.0139 7.50937 12.4469 6.94221 12.4469 6.24531C12.4469 5.54842 13.0139 4.98121 13.711 4.98121V4.98121ZM6.10352 2.60722C6.10352 1.91033 6.67054 1.34316 7.36763 1.34316C8.06471 1.34316 8.63168 1.91033 8.63168 2.60722C8.63168 3.30411 8.06471 3.87128 7.36763 3.87128C6.67054 3.87128 6.10352 3.30411 6.10352 2.60722ZM8.63168 17.3928C8.63168 18.0897 8.06471 18.6568 7.36763 18.6568C6.67054 18.6568 6.10352 18.0897 6.10352 17.3928C6.10352 16.6959 6.67054 16.1287 7.36763 16.1287C8.06471 16.1287 8.63168 16.6959 8.63168 17.3928ZM7.36753 11.7163C6.39531 11.7163 5.60439 10.9255 5.60439 9.95337C5.60439 8.98115 6.39531 8.19024 7.36753 8.19024C8.3397 8.19024 9.13062 8.98115 9.13062 9.95337C9.13062 10.9255 8.3397 11.7163 7.36753 11.7163ZM13.711 14.9488C13.0139 14.9488 12.4469 14.3816 12.4469 13.6847C12.4469 12.9878 13.0139 12.4207 13.711 12.4207C14.408 12.4207 14.975 12.9878 14.975 13.6847C14.975 14.3816 14.408 14.9488 13.711 14.9488Z" fill="black"/>
</svg>

<svg xmlns="http://www.w3.org/2000/svg" width="20" height="20" fill="none" viewBox="0 0 20 20">
    <path fill="#000" d="M13.711 11.078a2.6 2.6 0 0 0-1.955.888l-1.226-.868c.13-.358.205-.742.205-1.145a3.3 3.3 0 0 0-.198-1.126l1.223-.858a2.6 2.6 0 0 0 1.951.884 2.61 2.61 0 0 0 2.607-2.608 2.61 2.61 0 0 0-2.607-2.607 2.61 2.61 0 0 0-2.499 3.348l-1.223.858a3.37 3.37 0 0 0-2.085-1.211V5.158a2.61 2.61 0 0 0 2.07-2.55A2.61 2.61 0 0 0 7.369 0 2.61 2.61 0 0 0 4.76 2.607a2.61 2.61 0 0 0 2.025 2.54V6.64A3.37 3.37 0 0 0 4 9.953a3.37 3.37 0 0 0 2.808 3.318v1.577a2.61 2.61 0 0 0-2.048 2.545A2.61 2.61 0 0 0 7.368 20a2.61 2.61 0 0 0 2.607-2.607 2.61 2.61 0 0 0-2.048-2.545V13.27a3.37 3.37 0 0 0 2.05-1.193l1.234.873a2.6 2.6 0 0 0-.107.734 2.61 2.61 0 0 0 2.607 2.607 2.61 2.61 0 0 0 2.607-2.607 2.61 2.61 0 0 0-2.607-2.607m0-6.097c.697 0 1.264.567 1.264 1.264s-.567 1.264-1.264 1.264a1.266 1.266 0 0 1-1.264-1.264c0-.697.567-1.264 1.264-1.264M6.104 2.607c0-.697.567-1.264 1.264-1.264s1.264.567 1.264 1.264-.567 1.264-1.264 1.264a1.266 1.266 0 0 1-1.264-1.264m2.528 14.786c0 .697-.567 1.264-1.264 1.264a1.265 1.265 0 0 1-1.264-1.264c0-.697.567-1.264 1.264-1.264s1.264.567 1.264 1.264m-1.264-5.677c-.973 0-1.764-.79-1.764-1.763a1.765 1.765 0 0 1 3.527 0c0 .973-.791 1.763-1.763 1.763m6.343 3.233a1.266 1.266 0 0 1-1.264-1.264c0-.697.567-1.264 1.264-1.264s1.264.567 1.264 1.264-.567 1.264-1.264 1.264"/>
</svg>
